X:1
T:Title
%%score { ( 1 3 ) | ( 2 4 ) }
L:1/8
M:4/4
K:Ab
V:1 treble nm="Grand Piano"
V:3 treble 
V:2 bass 
V:4 bass 
V:1
 z4 z2[Q:1/4=100] E>E | [CA]2 [DF]2 [CE]2 A>B | [Ec]2 B2 A2 A>A | %3
 [=Dc]>[Dc] [Dc]>[DB] [DA]2 [Dc]2 |[M:3/4] B6 |[M:1/4] E>E |[M:4/4] [CA]2 [DF]2 [CE]2 A>B | %7
 [Ec]2 [DB]2 [CA]2 [Fd]>[Fd] | c2 e>c A2 B2 |[M:3/4] A6 |[M:1/4] E>E | %11
[M:4/4] [CA]2 [CA]2 (3[CA][DF][CE] A>c | e6 z2 | z2 G>G G2 e>d |[M:3/4] c6 |[M:1/4] E>E | %16
[M:4/4] [CA]2 [CA]2 (3[CA][DF][CE] A>c | e6 z2 | c e3 c2 B2 |[M:3/4] A6 |] %20
V:2
 z4 z2 [A,C]>[A,C] | [A,,E,]2 [A,,A,]2 [A,,A,]2 [A,C]>[E,G,D] | %2
 [A,,A,]2 [E,G,D]2 [F,A,C]2 [F,A,C]>[F,A,C] | [B,,F,]>[B,,F,] [B,,F,]>[B,,F,] [B,,F,]2 [B,,A,]2 | %4
[M:3/4] [E,G,D]6 |[M:1/4] [E,G,D]>[E,G,D] |[M:4/4] [A,,E,]2 [A,,A,]2 [A,,A,]2 [A,C]>[E,G,D] | %7
 [A,,A,]2 [E,G,]2 [F,A,]2 [D,A,]>[D,A,] | [E,A,E]2 [E,CE]>[E,E] [E,CE]2 [E,E]2 |[M:3/4] [A,CE]6 | %10
[M:1/4] [A,C]>[A,C] |[M:4/4] [A,,A,]2 [A,,A,]2 (3[A,,A,][A,,A,][A,,A,] z2 | %12
 z2 [A,C]>[A,C] [A,C]2 z2 | z2 [E,E]>[E,E] [E,E]2[K:treble] c>B | %14
[M:3/4] A2 [A,E]>[A,E][K:bass] [A,E]2 |[M:1/4] [A,C]>[A,C] | %16
[M:4/4] [A,,A,]2 [A,,A,]2 (3[A,,A,][A,,A,][A,,A,] z2 | z2 [A,C]>[A,C] [A,C]2 [D,A,]>[D,B,] | %18
 [E,A,E] [E,CE]3 [E,A,E]2 [E,G,D]2 |[M:3/4] z2 F,2 E,2 |] %20
V:3
 x8 | x8 | x8 | x8 |[M:3/4] x6 |[M:1/4] x2 |[M:4/4] x8 | x8 | x8 |[M:3/4] x6 |[M:1/4] x2 | %11
[M:4/4] x8 | z2 A>A A2 c>A | B6 z2 |[M:3/4] z2 A>A A2 |[M:1/4] x2 |[M:4/4] x8 | %17
 z2 A>A A2 [Fd]>[Fd] | x8 |[M:3/4] [A,C]2 D2 C2 |] %20
V:4
 x8 | x8 | x8 | x8 |[M:3/4] x6 |[M:1/4] x2 |[M:4/4] x8 | x8 | x8 |[M:3/4] x6 |[M:1/4] x2 | %11
[M:4/4] x8 | x8 | x6[K:treble] x2 |[M:3/4] x4[K:bass] x2 |[M:1/4] x2 |[M:4/4] x8 | x8 | x8 | %19
[M:3/4] A,,6 |] %20

